!!!COM: Mozart, Wolfgang Amadeus
!!!OTL: Musikalische Würfelspiele, Kontre-Tänze
!!!SCA: K<sup>6</sup> Anh. C30.01 (K<sup>3</sup> Anh. 294d)
**kern	**kern
*staff2	*staff2
*clefF4	*clefG2
*M2/4	*M2/4
*MM110	*MM110
*>[A,A1,A,A2,B]	*>[A,A1,A,A2,B]
*>norep[A,A2,B]	*>norep[A,A2,B]
*>A	*>A
=99	=99
16C	8g
16G	.
16E	4cc
16G	.
16C	.
16G	.
16E	8ee
16G	.
=150	=150
16C	8gg
16E	.
16G	8ee
16E	.
4C	16cc
.	16ee
.	16gg
.	16ee
=8	=8
4GG	8dd
.	8ff
4GG	8b
.	8dd
=139	=139
16C	8cc
16G	.
16E	8ee
16G	.
16C	4g
16G	.
16E	.
16G	.
=117	=117
16D	8aa
16A	.
16F#	4ff#
16A	.
16D	.
16A	.
16F#	8dd
16A	.
=125	=125
4G	16bb
.	16ddd
.	16ccc
.	16bb
4BB	16aa
.	16gg
.	16ff#
.	16gg
=161	=161
4C	16ee
.	16gg
.	16ee
.	16cc
4D	16b
.	16a
.	16g
.	16f#
=16	=16
*>A1	*>A1
4GG	4g 4b 4gg
16G	4r
16F	.
16E	.
16D	.
=16:|!	=16:|!
*>A2	*>A2
4GG	4g 4b 4gg
16GG	4r
16AA	.
16BB	.
16C#	.
=144||	=144||
*>B	*>B
4D	8d
.	16f#
.	16a
4D	8dd
.	8ff#
=104	=104
4G	8gg
.	16ddd
.	16bb
4GG	4gg
=26	=26
4C	8ee
.	8cc
4C	8gg
.	8ee
=51	=51
4GG	16b
.	16gg
.	16dd
.	16b
16G	4g
16F	.
16E	.
16D	.
=128	=128
16C	8g
16G	.
16E	4cc
16G	.
16C	.
16G	.
16E	8ee
16G	.
=80	=80
4C	8cc
.	8ee
4r	8ee
.	8ee
=129	=129
4G	8ff
.	8dd
4GG	8b
.	8g
=20	=20
4C	4cc
4CC	4c
==	==
*-	*-
